X:218
T:Gentills Hornpipe
O:No 218  Page 107 William Clarke of Feltwell
M:2/4
L:1/8
N:Missing bar line 1-2 added. Even so, A is 14 bars, B is 15 bars.  See an edited version following.
K:C
c>B|c3G|AGFE|cdec|fedc|BcdB|efgf|edd (c/B/)|c3G|AGFE|cdec|fedc|BcdB|defd|ec c::g/f/|egc'g|egc'g|afdf|a2zg/f/|gece|gece|dcdB|G2zg/f/|egc'g|egc'g|afdf|a2zg/f/|egfg|egfg|ec c:|

